X: 37514
T: Slip Jig For Janet
R: slip jig
M: 9/8
K: Dmajor
|:c2b, b,ca, b,2b,|A2E FAE FAB|BcA Bce fec|EFA cBA B2e:|
|:c2B Bce fec|EFA BAF E2e|c2B Bce fec|EFA cBA B2e:|

